X:231
T:Loch Erroche Side
%%VWML:Anon2-3049-p150-0
F:http://www.vwml.org/record/Anon2/3049/p150
S:Anon. MS, late 18thC, Vaughan Williams Mem. Library
N:Originally had a leading note of C. PJH
O:England;Yorkshire
Z:vmp/efdss.Simon Wilson. Reviewed PJH 2008.
M:C|
L:1/8
Q:1/2=50
K:C
E<GG>A c>dcB|AGAc d>ed (G/F/)|\
(E<G)G>A cd (c/d/e).d|cAGE EE2C:|
g/f/|egce g/f/e/f/ ge|f<adf a/g/f/g/ ag/f/|\
e<gce g/f/e/f/ ge|Gc ec (d2c)g/f/|
egce g/f/e/f/ ge|fgde a/g/f/g/ ag/f/|\
egde cGAc|GEcE {E}D2C2|]
